X: 11311
M: 6/8
L: 1/8
K: C
V: 1 clef=treble middle=B
e2g fdB | c2e dBG | ABc dfd | (c3 B2)G |\
efg fdB | cde dBG | ABc [B2F2][dF] | [c3-E3-] [c2E2] :|
|: B/c/ |\
{e}d2G {f}e2G | fed gec | ABc dfd | (c3 B2)B/c/ |\
dBG ecG | fBG gec | ABc [B2F2][dF] | [c3-E3-] [c2E2] :|
V: 2 clef=bass middle=d
z |\
[c3C3] [d3D3] | [e3E3] [f2F2][eE] | [f2F2][eE] [d2D2][fF] | g^fg G2z |\
[c3C3] [d3D3] | [e3E3] [f2F2][eE] | [f2F2][eE] [d2D2][gG] | ceg c2 :|
|: z |\
[B3g6] c3 | [d2g6]B c2e | f2e d2f | g^fg G2z |\
[f3g6] e3 | [d3g6] c2e | f2e d2f | ceg c2 :|

